src/lib/packages/icons/src/assets/line/chat-clock.svg

<svg width="24" height="24" viewBox="0 0 24 24" fill="none" xmlns="http://www.w3.org/2000/svg">
<path d="M12.001 2.25C6.626 2.25 2.25295 6.62302 2.25295 11.999C2.25295 13.399 2.56405 14.808 3.15505 16.082C3.27005 16.325 3.27893 16.633 3.18093 16.94L2.34011 19.441C2.13011 20.073 2.29311 20.76 2.76711 21.233C3.10311 21.569 3.54692 21.749 4.00392 21.749C4.18992 21.749 4.37705 21.719 4.56105 21.658L7.05007 20.822C7.36807 20.721 7.67707 20.729 7.92507 20.848C9.19207 21.437 10.601 21.748 12 21.748C17.376 21.748 21.749 17.375 21.749 11.999C21.749 6.62302 17.377 2.25 12.001 2.25ZM12.001 20.248C10.818 20.248 9.62796 19.985 8.56496 19.491C7.97596 19.21 7.27703 19.176 6.58303 19.397L4.08498 20.236C3.95998 20.278 3.8699 20.214 3.8279 20.172C3.7859 20.13 3.72193 20.041 3.76393 19.916L4.60793 17.405C4.82493 16.722 4.78996 16.023 4.51296 15.442C4.01596 14.372 3.75295 13.182 3.75295 11.998C3.75295 7.44999 7.453 3.74902 12.001 3.74902C16.55 3.74902 20.25 7.44899 20.25 11.998C20.25 16.547 16.55 20.248 12.001 20.248ZM12 7.25C9.38102 7.25 7.25002 9.381 7.25002 12C7.25002 14.619 9.38102 16.75 12 16.75C14.619 16.75 16.75 14.619 16.75 12C16.75 9.381 14.619 7.25 12 7.25ZM12 15.25C10.208 15.25 8.75002 13.792 8.75002 12C8.75002 10.208 10.208 8.75 12 8.75C13.792 8.75 15.25 10.208 15.25 12C15.25 13.792 13.792 15.25 12 15.25ZM13.53 12.47C13.823 12.763 13.823 13.238 13.53 13.531C13.384 13.677 13.192 13.751 13 13.751C12.808 13.751 12.616 13.678 12.47 13.531L11.47 12.531C11.329 12.39 11.25 12.2 11.25 12.001V10.501C11.25 10.087 11.586 9.75098 12 9.75098C12.414 9.75098 12.75 10.087 12.75 10.501V11.69L13.53 12.47Z" fill="currentColor"/>
</svg>

<svg xmlns="http://www.w3.org/2000/svg" width="24" height="24" fill="none"><path fill="currentColor" d="M12.001 2.25c-5.375 0-9.748 4.373-9.748 9.749 0 1.4.311 2.809.902 4.083.115.243.124.551.026.858l-.84 2.501a1.743 1.743 0 0 0 .426 1.792 1.745 1.745 0 0 0 1.794.425l2.49-.836c.317-.101.626-.093.874.026a9.73 9.73 0 0 0 4.075.9c5.376 0 9.749-4.373 9.749-9.749S17.377 2.25 12.001 2.25Zm0 17.998a8.214 8.214 0 0 1-3.436-.757c-.589-.281-1.288-.315-1.982-.094l-2.498.839a.244.244 0 0 1-.257-.064.242.242 0 0 1-.064-.256l.844-2.511c.217-.683.182-1.382-.095-1.963a8.227 8.227 0 0 1-.76-3.444c0-4.548 3.7-8.249 8.248-8.249 4.549 0 8.249 3.7 8.249 8.249s-3.7 8.25-8.249 8.25ZM12 7.25A4.756 4.756 0 0 0 7.25 12 4.756 4.756 0 0 0 12 16.75 4.756 4.756 0 0 0 16.75 12 4.756 4.756 0 0 0 12 7.25Zm0 8A3.254 3.254 0 0 1 8.75 12 3.254 3.254 0 0 1 12 8.75 3.254 3.254 0 0 1 15.25 12 3.254 3.254 0 0 1 12 15.25Zm1.53-2.78a.75.75 0 0 1-1.06 1.061l-1-1a.749.749 0 0 1-.22-.53v-1.5a.75.75 0 0 1 1.5 0v1.189l.78.78Z"/></svg>
